X:7057
T:The Man From Barnagrove
O:england
R:Hornpipe
C:Ed Reavy
M:4/4
L:1/8
N:The child is the father of man. And this same child is
N:the man from Barnagrove.
K:G
EF|GFGA BABd|e^def gfga|(3bag af gfed|(3Bcd BG FDB,D|
EDEF GFGA|BAGB d2 ef|gbaf gfed|B2 e^d e2:||
ga|bged Bdga|bge^c d2 ga|(3bag (3agf gfed|
BAFB [F2A2] BA|GBEF GFGA|(3Bcd ef gfga|
bagf gfed|B2 e^d e2:||
